X:1
T:The Green Gates
R:Reel
D:Téada (2002)
M:2/2
Q:180
K:D
|: DFAd B2BA | DFAd B2BA | BEE/E/E BEE/E/E | FABc dBAF |
   DFAd B2BA | DFAd B2BA | GABc dcdB | AFEF D4 ::
   Adde feed | ABBA B2FA | BEE/E/E BEE/E/E | FABc dBAF |
   Adde feed | ABBA B2BA | GABc dcdB | AFEF D4 :|